svgs/sharp-solid/laptop-mobile.svg

<svg xmlns="http://www.w3.org/2000/svg" viewBox="0 0 640 512"><!--! Font Awesome Pro 6.6.0 by @fontawesome - https://fontawesome.com License - https://fontawesome.com/license (Commercial License) Copyright 2024 Fonticons, Inc. --><path d="M96 0L64 0l0 32 0 256L0 288l0 48 48 48 304 0 0-96-224 0 0-224 320 0 0 32 64 0 0-64 0-32L480 0 96 0zM448 448l0-256 128 0 0 256-128 0zM384 128l0 64 0 256 0 64 64 0 128 0 64 0 0-64 0-256 0-64-64 0-128 0-64 0z"/></svg>

<svg xmlns="http://www.w3.org/2000/svg" viewBox="0 0 640 512"><!--! Font Awesome Pro 6.4.2 by @fontawesome - https://fontawesome.com License - https://fontawesome.com/license (Commercial License) Copyright 2023 Fonticons, Inc. --><path d="M96 0H64V32 288H0v48l48 48H352V288H128V64H448V96h64V32 0H480 96zM448 448V192H576V448H448zM384 128v64V448v64h64H576h64V448 192 128H576 448 384z"/></svg>
